icons/sign-out-24.svg

<svg xmlns="http://www.w3.org/2000/svg" width="24" height="24" viewBox="0 0 24 24"><path d="M3 3.25c0-.966.784-1.75 1.75-1.75h5.5a.75.75 0 010 1.5h-5.5a.25.25 0 00-.25.25v17.5c0 .138.112.25.25.25h5.5a.75.75 0 010 1.5h-5.5A1.75 1.75 0 013 20.75zm16.006 9.5H10.75a.75.75 0 010-1.5h8.256l-3.3-3.484a.75.75 0 011.088-1.032l4.5 4.75a.75.75 0 010 1.032l-4.5 4.75a.75.75 0 01-1.088-1.032z"/></svg>

<svg xmlns="http://www.w3.org/2000/svg" width="24" height="24" viewBox="0 0 24 24">
  <defs/>
  <path d="M3,3.25 C3,2.284 3.784,1.5 4.75,1.5 L10.25,1.5 C10.664,1.5 11,1.836 11,2.25 C11,2.664 10.664,3 10.25,3 L4.75,3 C4.612,3 4.5,3.112 4.5,3.25 L4.5,20.75 C4.5,20.888 4.612,21 4.75,21 L10.25,21 C10.664,21 11,21.336 11,21.75 C11,22.164 10.664,22.5 10.25,22.5 L4.75,22.5 C3.784,22.5 3,21.716 3,20.75 Z M19.006,12.75 L10.75,12.75 C10.336,12.75 10,12.414 10,12 C10,11.586 10.336,11.25 10.75,11.25 L19.006,11.25 L15.706,7.766 C15.433,7.464 15.45,6.999 15.746,6.719 C16.042,6.438 16.507,6.445 16.794,6.734 L21.294,11.484 C21.568,11.773 21.568,12.227 21.294,12.516 L16.794,17.266 C16.507,17.555 16.042,17.562 15.746,17.281 C15.45,17.001 15.433,16.536 15.706,16.234 Z"/>
</svg>
